!!!COM: Bach, Johann Sebastian
!!!OPR: Joh. Seb. Bachs vierstimmige Choralgesänge
!!!XEN: Four-part Chorales
!!!OTL: 165. Von Gott will ich nicht lassen
!!!SCT: BWV 418
!!!SCA: Thematisch-systematisches Verzeichnis der musikalischen Werke Johann Sebastian Bach: Bach-Werke-Verzeichnis (Schmieder)
!!!YOR: Bach Gesellschaft Edition xxxix
!!!ENC: Steven Rasmussen
!!!CDT: 1685/3//-1750/7/28/
!!!OCY: Deutschland
!!!YEC: Copyright (c) 1994, 2000 Center for Computer Assisted Research in the Humanities
!!!YEM: Rights to all derivative editions reserved
!!!YEN: United States of America
**kern	**kern	**kern	**kern	**silbe
*I:[BASSO]	*I:[TENORE]	*I:[ALTO]	*I:[SOPRANO]	*I:[SOPRANO]
*clefF4	*clefGv2	*clefG2	*clefG2	*
*k[]	*k[]	*k[]	*k[]	*
*a:	*a:	*a:	*a:	*
*M4/4	*M4/4	*M4/4	*M4/4	*
4AA	8AL	8cL	4e	Von
.	8BJ	8dJ	.	.
=1	=1	=1	=1	=1
4A	4c	4e	4a	Gott
4G#	4B	4e	4b	will
8AL	4A	4e	4cc	ich
8GnJ	.	.	.	.
4F#	4A	4d	4dd	nicht
=2	=2	=2	=2	=2
4G	2B	8dL	4.b	las-
.	.	8eJ	.	.
4D#	.	4f#	.	.
.	.	.	8a	.
4E;	4B;	4e;	4g;	-sen,
4C	4c	4e	4g	denn
=3	=3	=3	=3	=3
4F	8cL	4e	4a	er
.	8BJ	.	.	.
4F#	4A	4d	4a	lÃ¤sst
4G	8GL	8dL	4b	nicht
.	8AJ	8fJ	.	.
4G#	4B	8eL	4b	von
.	.	8dJ	.	.
=4	=4	=4	=4	=4
2.A;	2.A;	2.c;	2.e;	mir,
8EL	4G#	4B	4e	fÃ¼hrt
8DJ	.	.	.	.
=5	=5	=5	=5	=5
4C	4A	4e	4a	mich
4BB	4d	8f#L	4b	auf
.	.	8g#J	.	.
8AAL	4e	4a	4cc	rech-
8GJ	.	.	.	.
8FL	4A	8aL	8ddL	-ter
8EJ	.	8gnJ	8ccJ	.
=6	=6	=6	=6	=6
8DL	8AL	8fL	4.b	Stra-
8EJ	8G#J	8eJ	.	.
4F	4A	4d	.	.
.	.	.	8a	.
4E;	4B;	4e;	4g;	-ssen,
4BB	4B	4d	4g	da
=7	=7	=7	=7	=7
4C	8AL	4e	4a	ich
.	8BJ	.	.	.
4C#	8AL	4e	4a	sonst
.	8GJ	.	.	.
4D	8F#L	8dL	4b	ir-
.	8GJ	8eJ	.	.
4D#	4A	4f#	4b	-ret
=8	=8	=8	=8	=8
2.E;	2.G#;	2.B;	2.e;	sehr.
8AL	4A	4c	4ee	Er
8GJ	.	.	.	.
=9	=9	=9	=9	=9
4F	4A	4a	4dd	reicht
4F#	4d	4a	4cc	mir
4G	8dL	4g	4cc	sei-
.	8eJ	.	.	.
4GG	8fL	4g	4b	-ne
.	8dJ	.	.	.
=10	=10	=10	=10	=10
2.C;	2.e;	2.g;	2.cc;	Hand,
4G	4d	8gL	4b	den
.	.	8fJ	.	.
=11	=11	=11	=11	=11
4A	4c	4e	4cc	A-
4B	4g	4d	4dd	-bend
8cL	4g	4c	4ee	wie
8BJ	.	.	.	.
8AL	8cL	4e	4ee	den
8GJ	8BJ	.	.	.
=12	=12	=12	=12	=12
8F#L	4A	8aL	4.dd	Mor-
8E	.	8g	.	.
8F#	4d	8a	.	.
8DJ	.	8f#J	8cc	.
4G;	4d;	4g;	4b;	-gen
8GL	4d	4g	4b	tut
8FnJ	.	.	.	.
=13	=13	=13	=13	=13
8EL	4G	8gL	4cc	er
8DJ	.	8fJ	.	.
8EL	4c	8gL	4b	mich
8CJ	.	8eJ	.	.
8FL	8cL	4c	4a	wohl
8GJ	8BJ	.	.	.
8FL	8AL	4c	4a	ver-
8EJ	8GJ	.	.	.
=14	=14	=14	=14	=14
8D#L	8F#L	8BL	4.b	-sor-
8EJ	8GJ	8c#J	.	.
4F#	4A	4d#	.	.
.	.	.	8a	.
4E;	4B;	4e;	4g;	-gen,
4BB	4G	4dn	8gL	sei
.	.	.	8fJ	.
=15	=15	=15	=15	=15
4C	4G	8dL	4e	wo
.	.	8cJ	.	.
4F	8AL	8cL	4a	ich
.	8BJ	8dJ	.	.
8EL	8cL	8eL	8aL	woll'
8DJ	8dJ	8fJ	8bJ	.
8EL	4B	4e	4g#	im
8EEJ	.	.	.	.
=16	=16	=16	=16	=16
2.AA;	2.c#;	2.e;	2.a;	Land.
==|!	==|!	==|!	==|!	==|!
*-	*-	*-	*-	*-
!!!RWG: Key is interpreted using the Humdrum key tool.
!!!URL-pdf: https://s9.imslp.org/files/imglnks/usimg/6/6b/IMSLP24489-PMLP09471-CCARH_Bach_Chorales.pdf#page=114 Musedata edition
!!!URL-pdf: https://s9.imslp.org/files/imglnks/usimg/7/7a/IMSLP04155-Bach_-_BGA_253-438.pdf#page=90 	Bach-Gesellschaft Ausgabe, Band 39 (pp.175-276) Leipzig: Breitkopf und Härtel, 1892. Plate B.W. XXXIX.
!!!END: 1994/08/03
!!!EMD: Converted from MuseData to Humdrum Dec 19, 2000, by Andreas Kornstaedt using muse2kern.
!!!EED: Craig Stuart Sapp
!!!EEV: 2024/03/31
!!!filter-keyboard: satb2gs
